X:2948
T:Du gamle mor
C:Edvard Grieg
O:Norway
Z:Transcribed by Frank Nordberg - http://www.musicaviva.com
F:http://abc.musicaviva.com/tunes/grieg-edvard/grieg-gamle-mor/grieg-gamle-mor-1.abc
M:6/8
L:1/8
K:Am
E|A2cA2G|E2CE2D|E2DE2D|E3-E zG|c2ec2B|
w:Du gam-le mor, du sli-ter arm, s\aa svit-ten er som blod,_ men en-d\aa i ditt
G2EG2G|ABc BAB|G2GG2F|E2AA2^G|A3-A2|]
